src/symbols/av-symbol/25B6.svg

<svg id="emoji" viewBox="0 0 72 72" xmlns="http://www.w3.org/2000/svg">
  <g id="grid">
    <path fill="#b3b3b3" d="M68,4V68H4V4H68m4-4H0V72H72V0Z"/>
    <path fill="none" stroke="#00a5ff" stroke-miterlimit="10" stroke-width="0.1" d="M12.923,10.9583H59.0769A1.9231,1.9231,0,0,1,61,12.8814V59.0352a1.9231,1.9231,0,0,1-1.9231,1.9231H12.9231A1.9231,1.9231,0,0,1,11,59.0352V12.8813A1.923,1.923,0,0,1,12.923,10.9583Z"/>
    <rect x="16" y="4" rx="2.2537" width="40" height="64" fill="none" stroke="#00a5ff" stroke-miterlimit="10" stroke-width="0.1"/>
    <rect x="16" y="4" rx="2.2537" width="40" height="64" transform="translate(72) rotate(90)" fill="none" stroke="#00a5ff" stroke-miterlimit="10" stroke-width="0.1"/>
    <circle cx="36" cy="36" r="29" fill="none" stroke="#00a5ff" stroke-miterlimit="10" stroke-width="0.1"/>
  </g>
  <g id="color"/>
  <g id="hair"/>
  <g id="skin"/>
  <g id="skin-shadow"/>
  <g id="line">
    <path fill="none" stroke="#000000" stroke-linejoin="round" stroke-miterlimit="10" stroke-width="2" d="M19.5816,55.6062 c0.4848,0.1782,1.0303,0.297,1.5758,0.297c0.8485,0,1.697-0.297,2.4242-0.7722l30-15.9793l0.303-0.297 c0.7879-0.7722,1.2121-1.7227,1.2121-2.7919c0-1.0692-0.4242-2.0791-1.2121-2.7919l-0.303-0.297l-30-16.0981 c-1.0909-0.8316-2.6667-1.0098-4-0.4752c-1.5152,0.594-2.4848,2.0791-2.4848,3.683v31.8397 C17.0967,53.5272,18.0664,55.0122,19.5816,55.6062z"/>
  </g>
</svg>

<svg viewBox="0 0 72 72" xmlns="http://www.w3.org/2000/svg"><path fill="#b3b3b3" d="M68 4v64H4V4h64m4-4H0v72h72V0z"/><path fill="none" stroke="#00a5ff" stroke-miterlimit="10" stroke-width=".1" d="M12.923 10.958h46.154A1.923 1.923 0 0161 12.881v46.154a1.923 1.923 0 01-1.923 1.923H12.923A1.923 1.923 0 0111 59.035V12.881a1.923 1.923 0 011.923-1.923z"/><rect x="16" y="4" rx="2.254" width="40" height="64" fill="none" stroke="#00a5ff" stroke-miterlimit="10" stroke-width=".1"/><rect x="16" y="4" rx="2.254" width="40" height="64" transform="rotate(90 36 36)" fill="none" stroke="#00a5ff" stroke-miterlimit="10" stroke-width=".1"/><circle cx="36" cy="36" r="29" fill="none" stroke="#00a5ff" stroke-miterlimit="10" stroke-width=".1"/><path d="M19.582 55.606c.484.178 1.03.297 1.575.297.849 0 1.697-.297 2.425-.772l30-15.98.303-.296c.788-.772 1.212-1.723 1.212-2.792 0-1.07-.425-2.08-1.212-2.792l-.303-.297-30-16.098c-1.091-.832-2.667-1.01-4-.475-1.516.594-2.485 2.079-2.485 3.683v31.84c0 1.603.97 3.088 2.485 3.682z" stroke-linecap="round" stroke-miterlimit="10" stroke-width="6" stroke="#fff" fill="none" stroke-linejoin="round"/><path fill="none" stroke="#000" stroke-linejoin="round" stroke-miterlimit="10" stroke-width="2" d="M19.582 55.606c.484.178 1.03.297 1.575.297.849 0 1.697-.297 2.425-.772l30-15.98.303-.296c.788-.772 1.212-1.723 1.212-2.792 0-1.07-.425-2.08-1.212-2.792l-.303-.297-30-16.098c-1.091-.832-2.667-1.01-4-.475-1.516.594-2.485 2.079-2.485 3.683v31.84c0 1.603.97 3.088 2.485 3.682z"/></svg>
